assets/Japanese application button/Flat/japanese_application_button_flat.svg

<svg width="32" height="32" viewBox="0 0 32 32" fill="none" xmlns="http://www.w3.org/2000/svg">
<path d="M2 6C2 3.79086 3.79086 2 6 2H26C28.2091 2 30 3.79086 30 6V26C30 28.2091 28.2091 30 26 30H6C3.79086 30 2 28.2091 2 26V6Z" fill="#FF822D"/>
<path d="M16 6C16.5523 6 17 6.44772 17 7V7.875C17 7.94404 17.056 8 17.125 8H24C24.5523 8 25 8.44772 25 9V20C25 20.5523 24.5523 21 24 21C23.49 21 23.0691 20.6182 23.0077 20.1248C22.9992 20.0562 22.944 20 22.875 20H17.125C17.056 20 17 20.056 17 20.125V25C17 25.5523 16.5523 26 16 26C15.4477 26 15 25.5523 15 25V20.125C15 20.056 14.944 20 14.875 20H9.125C9.05596 20 9.00082 20.0562 8.99229 20.1248C8.93089 20.6182 8.51004 21 8 21C7.44772 21 7 20.5523 7 20V9C7 8.44771 7.44772 8 8 8H14.875C14.944 8 15 7.94404 15 7.875V7C15 6.44772 15.4477 6 16 6ZM17.125 10C17.056 10 17 10.056 17 10.125V12.875C17 12.944 17.056 13 17.125 13H22.875C22.944 13 23 12.944 23 12.875V10.125C23 10.056 22.944 10 22.875 10H17.125ZM17.125 15C17.056 15 17 15.056 17 15.125V17.875C17 17.944 17.056 18 17.125 18H22.875C22.944 18 23 17.944 23 17.875V15.125C23 15.056 22.944 15 22.875 15H17.125ZM14.875 18C14.944 18 15 17.944 15 17.875V15.125C15 15.056 14.944 15 14.875 15H9.125C9.05596 15 9 15.056 9 15.125V17.875C9 17.944 9.05596 18 9.125 18H14.875ZM14.875 13C14.944 13 15 12.944 15 12.875V10.125C15 10.056 14.944 10 14.875 10H9.125C9.05596 10 9 10.056 9 10.125V12.875C9 12.944 9.05596 13 9.125 13H14.875Z" fill="white"/>
</svg>

<svg xmlns="http://www.w3.org/2000/svg" width="32" height="32" fill="none"><path fill="#FF822D" d="M2 6a4 4 0 0 1 4-4h20a4 4 0 0 1 4 4v20a4 4 0 0 1-4 4H6a4 4 0 0 1-4-4V6Z"/><path fill="#fff" d="M16 6a1 1 0 0 1 1 1v.875c0 .069.056.125.125.125H24a1 1 0 0 1 1 1v11a1 1 0 0 1-1.992.125c-.009-.069-.064-.125-.133-.125h-5.75a.125.125 0 0 0-.125.125V25a1 1 0 1 1-2 0v-4.875a.125.125 0 0 0-.125-.125h-5.75c-.069 0-.124.056-.133.125A1 1 0 0 1 7 20V9a1 1 0 0 1 1-1h6.875A.125.125 0 0 0 15 7.875V7a1 1 0 0 1 1-1Zm1.125 4a.125.125 0 0 0-.125.125v2.75c0 .069.056.125.125.125h5.75a.125.125 0 0 0 .125-.125v-2.75a.125.125 0 0 0-.125-.125h-5.75Zm0 5a.125.125 0 0 0-.125.125v2.75c0 .069.056.125.125.125h5.75a.125.125 0 0 0 .125-.125v-2.75a.125.125 0 0 0-.125-.125h-5.75Zm-2.25 3a.125.125 0 0 0 .125-.125v-2.75a.125.125 0 0 0-.125-.125h-5.75a.125.125 0 0 0-.125.125v2.75c0 .069.056.125.125.125h5.75Zm0-5a.125.125 0 0 0 .125-.125v-2.75a.125.125 0 0 0-.125-.125h-5.75a.125.125 0 0 0-.125.125v2.75c0 .069.056.125.125.125h5.75Z"/></svg>
